X: 27275
T: Miss Thompson's
R: hornpipe
M: 4/4
K: Dmajor
|:(3ABc|d2 d>f e>dc>B|A2 A>B A>GF>E|D>FA>F D>GB>G|D>FA>F G>FE>D|
d2 d>f e>dc>B|A2 A>B A>GF>E|D>FA>d f>ed>c|d2 d>c d2:|
|:c>d|e>ce>c A>ce>c|f>df>d A>df>d|g>eg>e f>df>d|e>dc>B A2 D>G|
B>GB>G D>GB>G|A>FA>F D>FA>G|F>Ad>e f>ed>c|d2 d>c d2:|

